X: 33872
T: Red Box, The
R: reel
M: 4/4
K: Dmixolydian
|:afge fd~d2|cABG AD~D2|FDAD FGAB|cAdB cdeg|
afge fd~d2|cABG AD~D2|FDAD FGAB|cAGE EDD2:|
|:cBce ge^ce|d^cdf afdf|g2bg f2af|e^def dcAB|
cBce ge^ce|d^cdf afdf|g2ag fded|cAGE EDD2:|

